X:1
T:Lassus Trombone
T:Lassus Trombone
T:Henry Filmore - 1915
%%score ( 1 2 )
L:1/8
M:4/4
K:F
V:1 treble nm="P1"
V:2 treble 
V:1
 !>!F!>!G!>!A!>!B"C7" !>!c2 !>!c2 | F2 z2"^Trombone Solo" z4 |:"F""^A""^A" z8 | z4 z2 z ^G | %4
 A^GAG AGAG | A d2 c- c2"C7" z2 |"F" z8 | z4 z2 z ^G | A^GAG"D7" AGAG | A F2 G-"C7" G2 z2 |"F" z8 | %11
 z4 z2 z ^G | A^GAG AGAG | A d2 c- c2 z2 |"Db7" z2 _d2 d2 z2 |"F" z2 c2 c2 z2 |"C7" c2 z2 c2 c2 |1 %17
"F" f2 z2 z4!fine! :|2"F" f2 c2 c d2 c ||"G7""^B""^B" =B2 z2 z4 | z2 B2"C7" B c2 B |"F" A2 z2 z4 | %22
 z2 A2 A B2 A |"G7" G4 d4 |"C7" A4 G4 |1"F" F2 z2 z4 | z2 !>!c2 c d2 c ||2"F" F2 z2 z2 !>!c2 | %28
 !>!f2 z2 z4 |:[K:Bb]"Bb""^C"!mp! z2"^Solos Here" d2 d2 d2 | d B2 F- F4 | z2 f2 f2 f2 | %32
 f d2 B- B3 ^G |"F7" A^GAG AGAG | A d2 c- c3 A |"Bb" BABA BABA | B g2 f- f4 |"Bb" z2 d2 d2 d2 | %38
 d B2"Bb7" _A- A4 |"Eb" z2 f2 f2 f2 |"Ebm" f e2 _G- G3 =E |"Bb" F=EFE FEFE |"F7" F d2 c- cF G2 | %43
"Bb" B3 B"Eb7" G"^After Solos Play \"A\" once"F G2 |"Bb" B4 z4 :| %45
V:2
 x8 | x x2 x C4 |: x8 | x8 | x8 | x8 | x8 | x8 | x8 | x8 | x8 | x8 | x8 | x8 | x8 | x8 | x8 |1 %17
 x8 :|2 x8 || x8 | x8 | x8 | x8 | x8 | x8 |1 x8 | x8 ||2 x8 | x8 |:[K:Bb] x8 | x8 | x8 | x8 | x8 | %34
 x8 | x8 | x8 | x8 | x8 | x8 | x8 | x8 | x8 | x8 | x8 :| %45

